X: 11952
T: En Revenant De Sept​-​Îles
R: reel
M: 4/4
K: Gmajor
d3c|:BGDG B2GB|cAEA c2(3EFE|DEFG ABcd|ed^cd B2d=c|
BGDG B2GB|cAEA c2(3EFE|DEFG ABcA|1 B2G2 G2dc:|2 B2G2 G3A||
K: Emin
|:B2e2 e3f|gfeg f2d2|A2d2 d3e|fedf e2ed|
B2e2 e3f|gfeg f2d2|fedf edB^c|1 dBAF E4:|2 [M:6/4] dBAF E4 d3c||

